X:1
T:Cotton-Eyed Joe
M:4/4
L:1/8
K:C
 GG| B6 B2|A-G G6| B4 c B3| D8| B6 BB|A-G G4 D2-| D2 E2- D2 E2| G2 G6-|\
 G4||
